packages/icons/src/components/Icon/assets/small-outline/information.svg

<svg width="16" height="16" viewBox="0 0 16 16" fill="none" xmlns="http://www.w3.org/2000/svg">
<path fill-rule="evenodd" clip-rule="evenodd" d="M8 2.3125C4.85888 2.3125 2.3125 4.85888 2.3125 8C2.3125 11.1411 4.85888 13.6875 8 13.6875C11.1411 13.6875 13.6875 11.1411 13.6875 8C13.6875 4.85888 11.1411 2.3125 8 2.3125ZM1 8C1 4.13401 4.13401 1 8 1C11.866 1 15 4.13401 15 8C15 11.866 11.866 15 8 15C4.13401 15 1 11.866 1 8ZM7.34375 5.35677C7.34375 4.99433 7.63756 4.70052 8 4.70052H8.00529C8.36772 4.70052 8.66154 4.99433 8.66154 5.35677V5.36206C8.66154 5.72449 8.36772 6.01831 8.00529 6.01831H8C7.63756 6.01831 7.34375 5.72449 7.34375 5.36206V5.35677ZM7.55734 8.12213C7.28751 8.1578 7.01294 8.02195 6.88439 7.76484C6.7223 7.44066 6.8537 7.04647 7.17787 6.88439L7.20711 6.86976C8.11256 6.41704 9.13206 7.23485 8.88653 8.21695L8.44266 9.99246C8.71249 9.95679 8.98705 10.0926 9.11561 10.3497C9.2777 10.6739 9.14631 11.0681 8.82214 11.2302L8.79289 11.2448L8.79289 11.2448C7.88744 11.6975 6.86794 10.8797 7.11347 9.89764L7.55734 8.12213Z" fill="black"/>
</svg>

<svg xmlns="http://www.w3.org/2000/svg" width="16" height="16" fill="none" viewBox="0 0 16 16">
    <path d="M8 2.313a5.687 5.687 0 1 0 0 11.374A5.687 5.687 0 0 0 8 2.313M1 8a7 7 0 1 1 14 0A7 7 0 0 1 1 8m6.344-2.643c0-.363.294-.656.656-.656h.005c.363 0 .657.293.657.656v.005a.656.656 0 0 1-.657.656H8a.656.656 0 0 1-.656-.656zm.213 2.765a.657.657 0 0 1-.38-1.238l.03-.014c.906-.453 1.925.365 1.68 1.347l-.444 1.775a.657.657 0 0 1 .38 1.238l-.03.015c-.906.453-1.925-.365-1.68-1.347z" clip-rule="evenodd"/>
</svg>
